X: 12
T:Miss Brown's Favorite (#212)
M:4/4
L:1/8
S:Aird's Selections 1782-97
R:Reel
K:G
c|BGGA FGAc|BGGA gdcB|caBg AGFD|EcAF G2 G:|
d|gdgb fgaf|gabg afdf|gdbd fdad|fgaf g2 g2|
dfad cegc|BdgB DAcA|BdgB cAec|EcAF G2 G||

